X: 7
T: Contentment Is Wealth
R: jig
M: 6/8
L: 1/8
K: Edor
F|~G3 Eed|~B3 EAG|~F3 DdB|AFD D2f|
~g3 edB|BAB d2d|B/c/dB DFA|GED E2:||
|e3 Beg|bge gfe|d3 Adf|afd fed|
e3 Beg|bge g2e|B/c/dB DFA|GED E2:|


Tune 1662	Setting 15090

